icons/trophy.svg

<svg width="24" height="24" viewBox="0 0 24 24" fill="none" xmlns="http://www.w3.org/2000/svg">
<path fill-rule="evenodd" clip-rule="evenodd" d="M4 4C4 3.44772 4.44772 3 5 3H19C19.5523 3 20 3.44772 20 4V9C20 13.0796 16.9463 16.446 13 16.9381V19H17C17.5523 19 18 19.4477 18 20C18 20.5523 17.5523 21 17 21H7C6.44772 21 6 20.5523 6 20C6 19.4477 6.44772 19 7 19H11V16.9381C7.05369 16.446 4 13.0796 4 9V4ZM6 5V9C6 12.3137 8.68629 15 12 15C15.3137 15 18 12.3137 18 9V5H6ZM2 5C2.55228 5 3 5.44772 3 6V8C3 8.55228 2.55228 9 2 9C1.44772 9 1 8.55228 1 8V6C1 5.44772 1.44772 5 2 5ZM22 5C22.5523 5 23 5.44772 23 6V8C23 8.55228 22.5523 9 22 9C21.4477 9 21 8.55228 21 8V6C21 5.44772 21.4477 5 22 5Z" fill="black"/>
</svg>

<svg
  width="24"
  height="24"
  viewBox="0 0 24 24"
  xmlns="http://www.w3.org/2000/svg"
>
  <path
    fill-rule="evenodd"
    clip-rule="evenodd"
    d="M4 4a1 1 0 0 1 1-1h14a1 1 0 0 1 1 1v5a8.001 8.001 0 0 1-7 7.938V19h4a1 1 0 1 1 0 2H7a1 1 0 1 1 0-2h4v-2.062A8.001 8.001 0 0 1 4 9V4zm2 1v4a6 6 0 0 0 12 0V5H6zM2 5a1 1 0 0 1 1 1v2a1 1 0 0 1-2 0V6a1 1 0 0 1 1-1zm20 0a1 1 0 0 1 1 1v2a1 1 0 1 1-2 0V6a1 1 0 0 1 1-1z"
  />
</svg>
